Sources/FrostedUI/Resources/Icons.xcassets/sparkleRectangle32.imageset/sparkle-rectangle-32.svg

<svg width="32" height="32" viewBox="0 0 32 32" fill="none" xmlns="http://www.w3.org/2000/svg" data-fui-icon="true">
  <path
    d="M14.25 4C14.6642 4 15 4.33579 15 4.75C15 5.16421 14.6642 5.5 14.25 5.5H5.32031C3.76287 5.5 2.5 6.76287 2.5 8.32031V25.6797C2.5 27.2371 3.76287 28.5 5.32031 28.5H22.6797C24.2371 28.5 25.5 27.2371 25.5 25.6797V19.75C25.5 19.3358 25.8358 19 26.25 19C26.6642 19 27 19.3358 27 19.75V25.6797C27 28.0656 25.0656 30 22.6797 30H5.32031C2.93444 30 1 28.0656 1 25.6797V8.32031C1 5.93444 2.93444 4 5.32031 4H14.25ZM23.5 2C23.9142 2 24.25 2.33579 24.25 2.75C24.25 4.14559 24.9924 5.6526 26.1699 6.83008C27.3474 8.00755 28.8544 8.75 30.25 8.75C30.6642 8.75 31 9.08579 31 9.5C31 9.91421 30.6642 10.25 30.25 10.25C28.8864 10.25 27.3822 11.0863 26.1826 12.3447C24.9781 13.6082 24.25 15.1193 24.25 16.25C24.25 16.6642 23.9142 17 23.5 17C23.0858 17 22.75 16.6642 22.75 16.25C22.75 15.7186 22.5578 15.0726 22.1787 14.374C21.8035 13.6826 21.2682 12.9831 20.6426 12.3574C20.0169 11.7318 19.3174 11.1965 18.626 10.8213C17.9274 10.4422 17.2814 10.25 16.75 10.25C16.3358 10.25 16 9.91421 16 9.5C16 9.08579 16.3358 8.75 16.75 8.75C17.8807 8.75 19.3918 8.02189 20.6553 6.81738C21.9137 5.61776 22.75 4.11357 22.75 2.75C22.75 2.33579 23.0858 2 23.5 2ZM23.4629 5.61328C23.0035 6.46405 22.3805 7.24552 21.6904 7.90332C21.0084 8.55352 20.2204 9.12115 19.4014 9.53613C20.2163 9.98706 21.0078 10.6016 21.7031 11.2969C22.3981 11.9919 23.012 12.7831 23.4629 13.5977C23.8779 12.7787 24.4466 11.9915 25.0967 11.3096C25.7544 10.6196 26.5351 9.99552 27.3857 9.53613C26.5471 9.12145 25.7707 8.55191 25.1094 7.89062C24.4478 7.22903 23.8776 6.45236 23.4629 5.61328Z"
    fill="currentColor"
  />
</svg>

<svg xmlns="http://www.w3.org/2000/svg" width="32" height="32" fill="none" data-fui-icon="true" viewBox="0 0 32 32"><path fill="currentColor" d="M14.25 4a.75.75 0 0 1 0 1.5H5.32A2.82 2.82 0 0 0 2.5 8.32v17.36a2.82 2.82 0 0 0 2.82 2.82h17.36a2.82 2.82 0 0 0 2.82-2.82v-5.93a.75.75 0 0 1 1.5 0v5.93A4.32 4.32 0 0 1 22.68 30H5.32A4.32 4.32 0 0 1 1 25.68V8.32A4.32 4.32 0 0 1 5.32 4zm9.25-2a.75.75 0 0 1 .75.75c0 1.396.742 2.903 1.92 4.08s2.684 1.92 4.08 1.92a.75.75 0 0 1 0 1.5c-1.364 0-2.868.836-4.067 2.095-1.205 1.263-1.933 2.774-1.933 3.905a.75.75 0 0 1-1.5 0c0-.531-.192-1.177-.571-1.876-.375-.691-.91-1.39-1.536-2.017-.626-.625-1.326-1.16-2.017-1.536-.699-.379-1.345-.571-1.876-.571a.75.75 0 0 1 0-1.5c1.13 0 2.642-.728 3.905-1.933 1.259-1.2 2.095-2.703 2.095-4.067A.75.75 0 0 1 23.5 2m-.037 3.613a9.4 9.4 0 0 1-1.773 2.29 9.8 9.8 0 0 1-2.289 1.633c.815.451 1.607 1.066 2.302 1.76a10.5 10.5 0 0 1 1.76 2.302 9.8 9.8 0 0 1 1.634-2.288 9.4 9.4 0 0 1 2.289-1.774 8.7 8.7 0 0 1-2.277-1.645 8.7 8.7 0 0 1-1.646-2.278"/></svg>
